X:267
T:Evening Hymn TS.267
M:C|
L:1/4
Q:1/2=60
S:Thomas Sands’ MS,1810,Lincolnshire
R:air
O:England;Lincolnshire
Z:vmp.Ruairidh Greig, 2011
K:F
[V:1]F2Ac|dcBA|[G2C2][F2=B,2]|[c2G2E2]z[cA]|
[V:2]F,2F,F,|B,A,G,F,|E,2D,2|C,2zF,|
[V:1][dB]>[ec][fd][dB]|c2(3FAc|[BD]A[GC]B,|[F2A,2]||
[V:2]B,3B,|A,2F,2|B,,2C,2|[F,2F,,2]||#
[V:1]z[cA]|[d2D2][c2F2]|[d2=B2][e2c2]|[f2c2][d2=B2]|[c2G2E2]zc|
[V:2]zF,|B,2A,2|G,2C2|F,2G,2|C,2zA,|
[V:1]BAGF|dcBA|fedc|[f2c2A2]zA|
[V:2]DCB,A,|B,A,G,F,|A,CB,2|A,2zF,|
[V:1]BdGB|AcFB|[A2F2]G2|[F2C2A,2]|]
[V:2]B,,2C,2|F,2A,B,|C2C,2|[F,2F,,2]|]

